X: 33740
T: Rattigan's
R: reel
M: 4/4
K: Gmajor
(3DEF|G2BG DGBd|(3gag fg edBA|G2BG DGBG|ABAG FDEF|
(3GFE (3FED EDB,A,|G, gfg edBA|GABG DGBd|cAFA G2:|:Bc|
dggf gfed|eaag a2ag|fdad bdaf|dfaf gedc|
B~G3 (3EFG DF|Ggfg edBA|GABG DGBd|cAFA G2:|

